X: 1
T: Cuckoo
B: A COLECTION of the most Celebrated Irish Tunes14b
N: Better known as " SiBheag Si Mhor", and attributed to Turlough O'Carolan.
M: 3/4
L: 1/8
K: C
cd | e2 ed c2 | c2 cd c2 | A4 G2 | TE4 G2 | AG AB c2 | Td4 cd | e4 d2 |
~c4 e2 | ~A4 d2 | G4 AG | TE4 D2 | C4 e2 | TA4 d2 | ~ G4 cA | ~c6- | ~c4 :|
|: cd | e2 ed c2 | dc de g2 | a4 g2 | Te4 d>c | d2 d2 g2 | Te4 d>c | c4 A2 |
A4 AG | TE2 D2 | C4 dc | TA4 d2 | G4 g2 | ag fe dc | Td4 cB | c6- | c4 :|
